jsapp/svg-icons/twitter.svg

<svg height="40" viewBox="0 0 40 40" width="40" xmlns="http://www.w3.org/2000/svg"><path d="m23.5816438 12.0009903c1.5868494-.0282191 2.4312329.550137 3.2380822 1.2852055.6846576-.0586301 1.5742466-.4410959 2.0986302-.7073972.169863-.0928767.4632876-.1479452.6334246-.2408219-.299452.809041-.8290411 1.4041095-1.4531507 1.8849315-.1383561.1068493-.2758904.2509589-.449589.3189041v.009863c.8890411-.0090411 1.6221918-.410137 2.3186301-.6276713v.010137c-.3657534.5813699-.8608219 1.1709589-1.3890411 1.5942466-.2134246.1690411-.4265753.3383562-.639726.5079452.0117808.9413699-.0136986 1.8394521-.189863 2.630411-1.0230137 4.5980822-3.7336986 7.719726-8.0252055 9.0572602-1.5408219.48-4.0306849.6772603-5.7961644.2389042-.8756164-.2172603-1.6663013-.4624658-2.4084931-.7871233-.4123288-.180274-.7942466-.3753425-1.1594521-.5975343-.119726-.0734246-.239726-.1465753-.359726-.219452.3980822.0120548.8583562.0556164 1.3093151.049863.4104109-.0054795.7978082-.0479452 1.169315-.1295891.9265754-.2032876 1.7493151-.4720548 2.4583562-.8868493.3435616-.2008219.8649315-.4372602 1.1093151-.7271233-.460274.0082192-.8775343-.0986301-1.2191781-.219452-1.3254795-.4679452-2.0964384-1.3279452-2.5983562-2.620548.4013699.0441096 1.5583562.1487672 1.8287671-.079452-.5054794-.0279452-.9917808-.3208219-1.339178-.5380822-1.0660274-.6671233-1.9353425-1.7860274-1.9287672-3.5073973.1397261.0665754.2797261.1328767.4197261.1994521.2676712.1126027.54.1734246.859452.2389041.1350685.0279452.4046576.1073973.5597261.049863h-.02c-.2063014-.24-.5421918-.399726-.7495891-.6575342-.6841096-.8498631-1.4843836-2.100822-1.0789041-3.6589041.1027397-.3953425.4254795-.8019179.5991781-1.1238357.0065753.0035617.0134246.0065754.02.010137.079452.1668493.2572603.2890411.369863.4284932.3490411.4326027.78.8221918 1.2191781 1.1657534 1.4958904 1.169863 2.8430137 1.8887671 5.0068493 2.4210959.5487671.1350685 1.1832877.2380822 1.8389041.2391781-.1843836-.5364384-.1249315-1.4041096.02-1.9230137.3646575-1.3052055 1.1564384-2.2460274 2.3183562-2.750137.2780822-.120274.5863013-.2082192.909589-.2789041.1665754-.02.3331507-.0397261.499726-.0597261" fill-rule="evenodd"/></svg>

<?xml version="1.0" encoding="UTF-8"?>
<svg width="40px" height="40px" viewBox="0 0 40 40" version="1.1" xmlns="http://www.w3.org/2000/svg" xmlns:xlink="http://www.w3.org/1999/xlink">
    <!-- Generator: Sketch 50.2 (55047) - http://www.bohemiancoding.com/sketch -->
    <title>Icons/twitter</title>
    <desc>Created with Sketch.</desc>
    <defs>
        <path d="M23.5816438,12.0009903 C25.1684932,11.9727712 26.0128767,12.5511273 26.819726,13.2861958 C27.5043836,13.2275657 28.3939726,12.8450999 28.9183562,12.5787986 C29.0882192,12.4859219 29.3816438,12.4308534 29.5517808,12.3379767 C29.2523288,13.1470177 28.7227397,13.7420862 28.0986301,14.2229082 C27.960274,14.3297575 27.8227397,14.4738671 27.6490411,14.5418123 L27.6490411,14.5516753 C28.5380822,14.5426342 29.2712329,14.1415383 29.9676712,13.924004 L29.9676712,13.934141 C29.6019178,14.5155109 29.1068493,15.1050999 28.5786301,15.5283876 C28.3652055,15.6974287 28.1520548,15.8667438 27.9389041,16.0363328 C27.9506849,16.9777027 27.9252055,17.8757849 27.7490411,18.6667438 C26.7260274,23.264826 24.0153425,26.3864698 19.7238356,27.724004 C18.1830137,28.204004 15.6931507,28.4012643 13.9276712,27.9629082 C13.0520548,27.7456479 12.2613699,27.5004424 11.5191781,27.1757849 C11.1068493,26.9955109 10.7249315,26.8004424 10.359726,26.5782506 C10.24,26.504826 10.12,26.4316753 10,26.3587986 C10.3980822,26.3708534 10.8583562,26.414415 11.3093151,26.4086616 C11.719726,26.4031821 12.1071233,26.3607164 12.4786301,26.2790725 C13.4052055,26.0757849 14.2279452,25.8070177 14.9369863,25.3922232 C15.2805479,25.1914013 15.8019178,24.954963 16.0463014,24.6650999 C15.5860274,24.6733191 15.1687671,24.5664698 14.8271233,24.4456479 C13.5016438,23.9777027 12.7306849,23.1177027 12.2287671,21.8250999 C12.630137,21.8692095 13.7871233,21.9738671 14.0575342,21.7456479 C13.5520548,21.7177027 13.0657534,21.424826 12.7183562,21.2075657 C11.6523288,20.5404424 10.7830137,19.4215383 10.789589,17.7001684 C10.9293151,17.7667438 11.0693151,17.8330451 11.2093151,17.8996205 C11.4769863,18.0122232 11.7493151,18.0730451 12.0687671,18.1385246 C12.2038356,18.1664698 12.4734247,18.2459219 12.6284932,18.1883876 L12.6084932,18.1883876 C12.4021918,17.9483876 12.0663014,17.7886616 11.8589041,17.5308534 C11.1747945,16.6809903 10.3745205,15.4300314 10.78,13.8719493 C10.8827397,13.4766068 11.2054795,13.0700314 11.3791781,12.7481136 C11.3857534,12.7516753 11.3926027,12.754689 11.3991781,12.7582506 C11.4786301,12.9250999 11.6564384,13.0472917 11.7690411,13.1867438 C12.1180822,13.6193465 12.5490411,14.0089356 12.9882192,14.3524972 C14.4841096,15.5223602 15.8312329,16.2412643 17.9950685,16.7735931 C18.5438356,16.9086616 19.1783562,17.0116753 19.8339726,17.0127712 C19.649589,16.4763328 19.7090411,15.6086616 19.8539726,15.0897575 C20.2186301,13.784552 21.010411,12.8437301 22.1723288,12.3396205 C22.450411,12.2193465 22.7586301,12.1314013 23.0819178,12.0607164 C23.2484932,12.0407164 23.4150685,12.0209903 23.5816438,12.0009903" id="path-1"></path>
    </defs>
    <g id="Icons/twitter" stroke="none" stroke-width="1" fill="none" fill-rule="evenodd">
        <mask id="mask-2" fill="white">
            <use xlink:href="#path-1"></use>
        </mask>
        <use id="Mask" fill="#000000" xlink:href="#path-1"></use>
    </g>
</svg>
